src/assets/duotone/FormatCircle.svg

<svg width="24" height="24" viewBox="0 0 24 24"  xmlns="http://www.w3.org/2000/svg">
<path d="M9.03 5.17C9.02 5.08 9.01 5 8.99 4.91C8.98 4.84 8.97 4.77 8.95 4.69C8.92 4.57 8.88 4.44 8.83 4.32C8.71 3.97 8.53 3.65 8.3 3.35C8.17 3.19 8.03 3.03 7.87 2.9C7.23 2.32 6.4 2 5.53 2C3.58 2 2 3.58 2 5.53C2 6.4 2.32 7.23 2.9 7.87C3.03 8.03 3.19 8.17 3.35 8.3C3.65 8.53 3.97 8.71 4.32 8.83C4.44 8.88 4.57 8.92 4.69 8.95C4.77 8.97 4.84 8.98 4.91 8.99C5 9.01 5.08 9.02 5.17 9.03C5.29 9.04 5.41 9.05 5.53 9.05C7.47 9.05 9.05 7.47 9.05 5.53C9.05 5.41 9.04 5.29 9.03 5.17Z" />
<path d="M21.1002 16.1402C21.0002 16.0102 20.8702 15.8802 20.7302 15.7702C20.7102 15.7502 20.6802 15.7202 20.6502 15.7002C20.3802 15.4902 20.0802 15.3202 19.7702 15.2002C19.7402 15.1802 19.7102 15.1702 19.6802 15.1702C19.5702 15.1302 19.4602 15.0902 19.3502 15.0602C19.1802 15.0202 19.0002 14.9902 18.8302 14.9702C18.7102 14.9602 18.5902 14.9502 18.4702 14.9502C16.5302 14.9502 14.9502 16.5302 14.9502 18.4702C14.9502 18.5902 14.9602 18.7102 14.9702 18.8302C14.9902 19.0002 15.0202 19.1802 15.0602 19.3502C15.0902 19.4602 15.1302 19.5702 15.1702 19.6802C15.1702 19.7102 15.1802 19.7402 15.2002 19.7702C15.3202 20.0802 15.4902 20.3802 15.7002 20.6502C15.7202 20.6802 15.7502 20.7002 15.7702 20.7302C15.8802 20.8702 16.0102 21.0002 16.1402 21.1002C16.7802 21.6802 17.6002 22.0002 18.4702 22.0002C20.4202 22.0002 22.0002 20.4202 22.0002 18.4702C22.0002 17.6002 21.6802 16.7802 21.1002 16.1402Z" />
<path d="M5.53 14.9502C5.41 14.9502 5.29 14.9602 5.17 14.9702C5 14.9902 4.82 15.0202 4.65 15.0602C4.54 15.0902 4.43 15.1302 4.32 15.1702C4.29 15.1702 4.26 15.1802 4.23 15.2002C3.92 15.3202 3.62 15.4902 3.35 15.7002C3.32 15.7202 3.3 15.7502 3.27 15.7702C3.13 15.8802 3 16.0102 2.9 16.1402C2.32 16.7802 2 17.6002 2 18.4702C2 20.4202 3.58 22.0002 5.53 22.0002C6.4 22.0002 7.23 21.6802 7.87 21.1002C8.03 20.9702 8.17 20.8102 8.3 20.6502C8.51 20.3802 8.68 20.0802 8.8 19.7702C8.82 19.7402 8.83 19.7102 8.83 19.6802C8.87 19.5702 8.91 19.4602 8.94 19.3502C8.98 19.1802 9.01 19.0002 9.03 18.8302C9.04 18.7102 9.05 18.5902 9.05 18.4702C9.05 16.5302 7.47 14.9502 5.53 14.9502Z" />
<path d="M18.4702 2C17.6002 2 16.7802 2.32 16.1402 2.9C16.0102 3 15.8802 3.13 15.7702 3.27C15.7502 3.29 15.7202 3.32 15.7002 3.35C15.4902 3.62 15.3202 3.92 15.2002 4.23C15.1802 4.26 15.1702 4.29 15.1702 4.32C15.1302 4.43 15.0902 4.54 15.0602 4.65C15.0202 4.82 14.9902 5 14.9702 5.17C14.9602 5.29 14.9502 5.41 14.9502 5.53C14.9502 7.47 16.5302 9.05 18.4702 9.05C18.5902 9.05 18.7102 9.04 18.8302 9.03C19.0002 9.01 19.1802 8.98 19.3502 8.94C19.4602 8.91 19.5702 8.87 19.6802 8.83C19.7102 8.83 19.7402 8.82 19.7702 8.8C20.0802 8.68 20.3802 8.51 20.6502 8.3C20.8102 8.17 20.9702 8.03 21.1002 7.87C21.6802 7.23 22.0002 6.4 22.0002 5.53C22.0002 3.58 20.4202 2 18.4702 2Z" />
<path opacity="0.4" d="M15.77 20.73C15.75 20.7 15.72 20.68 15.7 20.65C15.49 20.38 15.32 20.08 15.2 19.77C15.21 19.8 15.22 19.83 15.23 19.86C13.22 20.7 10.82 20.71 8.77 19.86C8.78 19.83 8.79 19.8 8.8 19.77C8.68 20.08 8.51 20.38 8.3 20.65C8.17 20.81 8.03 20.97 7.87 21.1C9.15 21.69 10.57 22 12 22C13.46 22 14.85 21.7 16.14 21.1C16.01 21 15.88 20.87 15.77 20.73ZM3.5 12C3.5 10.89 3.72 9.78 4.14 8.77C4.15 8.77 4.17 8.78 4.18 8.78C4.06 8.73 3.93 8.67 3.82 8.61C3.66 8.52 3.5 8.42 3.35 8.3C3.19 8.17 3.03 8.03 2.9 7.87C2.31 9.15 2 10.57 2 12C2 13.46 2.3 14.85 2.9 16.14C3 16.01 3.13 15.88 3.27 15.77C3.3 15.75 3.32 15.72 3.35 15.7C3.62 15.49 3.92 15.32 4.23 15.2C4.2 15.21 4.17 15.22 4.14 15.23C3.71 14.22 3.5 13.13 3.5 12ZM21.1 7.87C20.97 8.03 20.81 8.17 20.65 8.3C20.38 8.51 20.08 8.68 19.77 8.8C19.8 8.79 19.83 8.78 19.86 8.77C20.28 9.78 20.5 10.89 20.5 12C20.5 13.13 20.29 14.22 19.86 15.23C19.83 15.22 19.8 15.21 19.77 15.2C20.08 15.32 20.38 15.49 20.65 15.7C20.68 15.72 20.71 15.75 20.73 15.77C20.87 15.88 21 16.01 21.1 16.14C21.7 14.85 22 13.46 22 12C22 10.57 21.69 9.15 21.1 7.87ZM12 2C10.57 2 9.15 2.31 7.87 2.9C8.03 3.03 8.17 3.19 8.3 3.35C8.42 3.5 8.52 3.66 8.61 3.82C8.67 3.93 8.73 4.06 8.78 4.18C8.78 4.17 8.77 4.15 8.77 4.14C10.81 3.29 13.22 3.3 15.23 4.14C15.22 4.17 15.21 4.2 15.2 4.23C15.32 3.92 15.49 3.62 15.7 3.35C15.72 3.32 15.75 3.29 15.77 3.27C15.88 3.13 16.01 3 16.14 2.9C14.85 2.3 13.46 2 12 2Z" />
</svg>

<?xml version="1.0" encoding="UTF-8"?>
<svg width="24" height="24" viewBox="0 0 24 24" xmlns="http://www.w3.org/2000/svg">
 <path d="M9.03 5.17C9.02 5.08 9.01 5 8.99 4.91C8.98 4.84 8.97 4.77 8.95 4.69C8.92 4.57 8.88 4.44 8.83 4.32C8.71 3.97 8.53 3.65 8.3 3.35C8.17 3.19 8.03 3.03 7.87 2.9C7.23 2.32 6.4 2 5.53 2C3.58 2 2 3.58 2 5.53C2 6.4 2.32 7.23 2.9 7.87C3.03 8.03 3.19 8.17 3.35 8.3C3.65 8.53 3.97 8.71 4.32 8.83C4.44 8.88 4.57 8.92 4.69 8.95C4.77 8.97 4.84 8.98 4.91 8.99C5 9.01 5.08 9.02 5.17 9.03C5.29 9.04 5.41 9.05 5.53 9.05C7.47 9.05 9.05 7.47 9.05 5.53C9.05 5.41 9.04 5.29 9.03 5.17Z"/>
 <path d="m21.1 16.14c-0.1-0.13-0.23-0.26-0.37-0.37-0.02-0.02-0.05-0.05-0.08-0.07-0.27-0.21-0.57-0.38-0.88-0.5-0.03-0.02-0.06-0.03-0.09-0.03-0.11-0.04-0.22-0.08-0.33-0.11-0.17-0.04-0.35-0.07-0.52-0.09-0.12-0.01-0.24-0.02-0.36-0.02-1.94 0-3.52 1.58-3.52 3.52 0 0.12 0.01 0.24 0.02 0.36 0.02 0.17 0.05 0.35 0.09 0.52 0.03 0.11 0.07 0.22 0.11 0.33 0 0.03 0.01 0.06 0.03 0.09 0.12 0.31 0.29 0.61 0.5 0.88 0.02 0.03 0.05 0.05 0.07 0.08 0.11 0.14 0.24 0.27 0.37 0.37 0.64 0.58 1.46 0.9 2.33 0.9 1.95 0 3.53-1.58 3.53-3.53 0-0.87-0.32-1.69-0.9-2.33z"/>
 <path d="m5.53 14.95c-0.12 0-0.24 0.01-0.36 0.02-0.17 0.02-0.35 0.05-0.52 0.09-0.11 0.03-0.22 0.07-0.33 0.11-0.03 0-0.06 0.01-0.09 0.03-0.31 0.12-0.61 0.29-0.88 0.5-0.03 0.02-0.05 0.05-0.08 0.07-0.14 0.11-0.27 0.24-0.37 0.37-0.58 0.64-0.9 1.46-0.9 2.33 0 1.95 1.58 3.53 3.53 3.53 0.87 0 1.7-0.32 2.34-0.9 0.16-0.13 0.3-0.29 0.43-0.45 0.21-0.27 0.38-0.57 0.5-0.88 0.02-0.03 0.03-0.06 0.03-0.09 0.04-0.11 0.08-0.22 0.11-0.33 0.04-0.17 0.07-0.35 0.09-0.52 0.01-0.12 0.02-0.24 0.02-0.36 0-1.94-1.58-3.52-3.52-3.52z"/>
 <path d="m18.47 2c-0.87 0-1.69 0.32-2.33 0.9-0.13 0.1-0.26 0.23-0.37 0.37-0.02 0.02-0.05 0.05-0.07 0.08-0.21 0.27-0.38 0.57-0.5 0.88-0.02 0.03-0.03 0.06-0.03 0.09-0.04 0.11-0.08 0.22-0.11 0.33-0.04 0.17-0.07 0.35-0.09 0.52-0.01 0.12-0.02 0.24-0.02 0.36 0 1.94 1.58 3.52 3.52 3.52 0.12 0 0.24-0.01 0.36-0.02 0.17-0.02 0.35-0.05 0.52-0.09 0.11-0.03 0.22-0.07 0.33-0.11 0.03 0 0.06-0.01 0.09-0.03 0.31-0.12 0.61-0.29 0.88-0.5 0.16-0.13 0.32-0.27 0.45-0.43 0.58-0.64 0.9-1.47 0.9-2.34 0-1.95-1.58-3.53-3.53-3.53z"/>
 <path d="m15.77 20.73c-0.02-0.03-0.05-0.05-0.07-0.08-0.21-0.27-0.38-0.57-0.5-0.88l0.03 0.09c-2.01 0.84-4.41 0.85-6.46 0l0.03-0.09c-0.12 0.31-0.29 0.61-0.5 0.88-0.13 0.16-0.27 0.32-0.43 0.45 1.28 0.59 2.7 0.9 4.13 0.9 1.46 0 2.85-0.3 4.14-0.9-0.13-0.1-0.26-0.23-0.37-0.37zm-12.27-8.73c0-1.11 0.22-2.22 0.64-3.23 0.01 0 0.03 0.01 0.04 0.01-0.12-0.05-0.25-0.11-0.36-0.17-0.16-0.09-0.32-0.19-0.47-0.31-0.16-0.13-0.32-0.27-0.45-0.43-0.59 1.28-0.9 2.7-0.9 4.13 0 1.46 0.3 2.85 0.9 4.14 0.1-0.13 0.23-0.26 0.37-0.37 0.03-0.02 0.05-0.05 0.08-0.07 0.27-0.21 0.57-0.38 0.88-0.5-0.03 0.01-0.06 0.02-0.09 0.03-0.43-1.01-0.64-2.1-0.64-3.23zm17.6-4.13c-0.13 0.16-0.29 0.3-0.45 0.43-0.27 0.21-0.57 0.38-0.88 0.5 0.03-0.01 0.06-0.02 0.09-0.03 0.42 1.01 0.64 2.12 0.64 3.23 0 1.13-0.21 2.22-0.64 3.23-0.03-0.01-0.06-0.02-0.09-0.03 0.31 0.12 0.61 0.29 0.88 0.5 0.03 0.02 0.06 0.05 0.08 0.07 0.14 0.11 0.27 0.24 0.37 0.37 0.6-1.29 0.9-2.68 0.9-4.14 0-1.43-0.31-2.85-0.9-4.13zm-9.1-5.87c-1.43 0-2.85 0.31-4.13 0.9 0.16 0.13 0.3 0.29 0.43 0.45 0.12 0.15 0.22 0.31 0.31 0.47 0.06 0.11 0.12 0.24 0.17 0.36 0-0.01-0.01-0.03-0.01-0.04 2.04-0.85 4.45-0.84 6.46 0l-0.03 0.09c0.12-0.31 0.29-0.61 0.5-0.88 0.02-0.03 0.05-0.06 0.07-0.08 0.11-0.14 0.24-0.27 0.37-0.37-1.29-0.6-2.68-0.9-4.14-0.9z" opacity=".4"/>
</svg>
